svg/fluentui-system-icons/ic_fluent_building_retail_shield_20_filled.svg

<svg width="20" height="20" viewBox="0 0 20 20" fill="none" xmlns="http://www.w3.org/2000/svg">
<path d="M18 4.5C18 5.15311 17.5826 5.70873 17 5.91465V9.26758C16.6633 9.02949 16.3734 8.76782 16.1491 8.53913C15.8375 8.22142 15.4188 8.06253 15 8.0625V7.5C15 7.22386 14.7761 7 14.5 7H5.5C5.22386 7 5 7.22386 5 7.5V10.5C5 10.7761 5.22386 11 5.5 11H10.0833C10.0298 11.153 9.99998 11.3203 10 11.5002L10.0002 13L10 12.5C10 12.2239 9.77614 12 9.5 12H5.5C5.22386 12 5 12.2239 5 12.5V17H3.5C3.22386 17 3 16.7761 3 16.5V5.91465C2.4174 5.70873 2 5.15311 2 4.5C2 3.67157 2.67157 3 3.5 3H16.5C17.3284 3 18 3.67157 18 4.5ZM3 4.5C3 4.77614 3.22386 5 3.5 5H16.5C16.7761 5 17 4.77614 17 4.5C17 4.22386 16.7761 4 16.5 4H3.5C3.22386 4 3 4.22386 3 4.5ZM14 8V8.40511C13.948 8.44607 13.8982 8.49071 13.8508 8.53902C13.3116 9.08871 12.3929 9.82889 11.3592 9.97447C11.3138 9.98087 11.2683 9.9894 11.2231 10H6V8H14ZM9 13H6V17H9V13ZM18.5013 10.9647C17.1302 10.7717 16.0154 9.83093 15.4352 9.23931C15.204 9.00357 14.796 9.00354 14.5648 9.23926C13.9845 9.83085 12.8695 10.7716 11.4987 10.9647C11.2253 11.0032 11 11.2239 11.0001 11.5001L11.0004 14C11.0004 17.4685 14.1823 18.7273 14.8702 18.9589C14.9563 18.9879 15.0443 18.9879 15.1304 18.9589C15.8183 18.7273 19 17.4685 19 14V11.5C19 11.2239 18.7748 11.0032 18.5013 10.9647Z" fill="#212121"/>
</svg>

<svg xmlns="http://www.w3.org/2000/svg" width="20" height="20"><path d="M18 4.5a1.5 1.5 0 0 1-1 1.415v3.353a6.33 6.33 0 0 1-.85-.729A1.605 1.605 0 0 0 15 8.063V7.5a.5.5 0 0 0-.5-.5h-9a.5.5 0 0 0-.5.5v3a.5.5 0 0 0 .5.5h4.583a1.52 1.52 0 0 0-.083.5V13v-.5a.5.5 0 0 0-.5-.5h-4a.5.5 0 0 0-.5.5V17H3.5a.5.5 0 0 1-.5-.5V5.915A1.5 1.5 0 0 1 3.5 3h13A1.5 1.5 0 0 1 18 4.5Zm-15 0a.5.5 0 0 0 .5.5h13a.5.5 0 0 0 0-1h-13a.5.5 0 0 0-.5.5ZM14 8v.405a1.57 1.57 0 0 0-.15.134c-.538.55-1.457 1.29-2.49 1.435a1.575 1.575 0 0 0-.137.026H6V8h8Zm-5 5H6v4h3v-4Zm9.501-2.035c-1.37-.193-2.486-1.134-3.066-1.726a.624.624 0 0 0-.87 0c-.58.592-1.695 1.533-3.066 1.726-.274.038-.499.259-.499.535V14c0 3.468 3.182 4.727 3.87 4.959a.4.4 0 0 0 .26 0C15.818 18.727 19 17.469 19 14v-2.5c0-.276-.225-.497-.499-.535Z"/></svg>
